src/pos-icons/dolly.svg

<svg height="24" viewBox="0 0 24 24" width="24" xmlns="http://www.w3.org/2000/svg"><path d="m11.97 19.88c-1.04.38-2.19-.16-2.57-1.19-.4-1.04.15-2.19 1.19-2.56 1.04-.38 2.19.15 2.57 1.18.38 1.04-.16 2.19-1.19 2.57m-2.07-5.63c-2.07.75-3.14 3.05-2.4 5.13.78 2.07 3.08 3.12 5.16 2.37 2.07-.75 3.13-3.05 2.38-5.12-.76-2.08-3.07-3.13-5.14-2.38m6.04-9.67-6.57 2.42 1.38 3.74 6.57-2.41m3 5.29-4.78 1.75c.17.29.31.59.43.91s.2.65.25.97l4.78-1.75m-1.46-6.92-8.45 3.1.49 1.32c1.25.09 2.42.64 3.31 1.55l6.03-2.21m-18.92-10.34v2h3.09l3.57 9.75c.28-.18.58-.32.9-.44s.65-.2.97-.25l-4.03-11.06"/></svg>

<?xml version="1.0" encoding="UTF-8"?><!DOCTYPE svg PUBLIC "-//W3C//DTD SVG 1.1//EN" "http://www.w3.org/Graphics/SVG/1.1/DTD/svg11.dtd"><svg xmlns="http://www.w3.org/2000/svg" xmlns:xlink="http://www.w3.org/1999/xlink" version="1.1" id="mdi-dolly" width="24" height="24" viewBox="0 0 24 24"><path d="M11.97,19.88C10.93,20.26 9.78,19.72 9.4,18.69C9,17.65 9.55,16.5 10.59,16.13C11.63,15.75 12.78,16.28 13.16,17.31C13.54,18.35 13,19.5 11.97,19.88M9.9,14.25C7.83,15 6.76,17.3 7.5,19.38C8.28,21.45 10.58,22.5 12.66,21.75C14.73,21 15.79,18.7 15.04,16.63C14.28,14.55 11.97,13.5 9.9,14.25M15.94,4.58L9.37,7L10.75,10.74L17.32,8.33M20.32,13.62L15.54,15.37C15.71,15.66 15.85,15.96 15.97,16.28C16.09,16.6 16.17,16.93 16.22,17.25L21,15.5M19.54,8.58L11.09,11.68L11.58,13C12.83,13.09 14,13.64 14.89,14.55L20.92,12.34M2,2V4H5.09L8.66,13.75C8.94,13.57 9.24,13.43 9.56,13.31C9.88,13.19 10.21,13.11 10.53,13.06L6.5,2" /></svg>
